images/idle.svg

<svg height="250" viewBox="0 0 250 250" width="250" xmlns="http://www.w3.org/2000/svg" xmlns:xlink="http://www.w3.org/1999/xlink"><linearGradient id="a"><stop offset=".00000037658" stop-color="#6fa4f2"/><stop offset=".5051" stop-color="#0f6beb"/><stop offset="1" stop-color="#0b50b0"/></linearGradient><linearGradient id="b" gradientTransform="scale(.256148 .645995)" gradientUnits="userSpaceOnUse" x1="222.184402" x2="20.240299" xlink:href="#a" y1="363.4888" y2="92.922897"/><linearGradient id="c" gradientTransform="scale(.256148 .645995)" gradientUnits="userSpaceOnUse" x1="298.516205" x2="96.572098" xlink:href="#a" y1="306.51651" y2="35.950699"/><g fill="#fff"><path d="m121.625 57.882812h10.230469v144.941407h-10.230469zm0 0"/><path d="m202.355469 57.882812v139.359376l-10.230469 14.902343v-154.261719zm0 0"/><path d="m174.632812 47.601562v61.660157c-3.164062-10.277344-7.730468-19.5-14.972656-19.5-10.476562 0-20.375 20.769531-20.375 57.460937v.425782c0 36.691406 10.058594 57.460937 20.375 57.460937 7.15625 0 11.734375-9.222656 14.972656-20.769531v18.484375h10.230469v-170.125zm.164063 100.046876c0 2.027343-.058594 4.003906-.164063 5.910156-1 17.882812-6.472656 29.542968-12.5625 29.542968-6.816406 0-12.640624-14.070312-12.640624-35.453124v-.425782c0-22.027344 5.738281-35.453125 12.640624-35.453125 6.089844 0 11.570313 11.492188 12.5625 29.496094.105469 1.90625.164063 3.910156.164063 5.964844zm0 0"/><path d="m207.574219 147.855469v-.421875c0-31.671875 8.898437-57.679688 21.457031-57.679688 13.972656 0 21.046875 27.6875 21.046875 59.574219 0 2.304687-.085937 4.613281-.167969 7.132813h-32.273437c1.082031 18.035156 6.15625 28.105468 12.640625 28.105468 4.910156 0 8.402344-4.613281 11.894531-13.214844l5.90625 13.214844c-4.160156 12.585938-9.898437 20.769532-17.964844 20.769532-12.722656-.007813-22.539062-23.292969-22.539062-57.480469zm32.519531-8.183594c-.664062-16.363281-4.488281-29.15625-11.144531-29.15625-6.15625 0-10.480469 11.957031-11.394531 29.15625zm0 0"/></g><path d="m34.246094.644531v199.757813h-34.03125l-.214844-.3125v-149.578125l1.304688-1.90625zm0 0" fill="url(#b)" fill-rule="evenodd"/><path d="m45.214844 250v-199.753906h34.03125l.214844.308594v149.582031l-1.304688 1.90625zm0 0" fill="url(#c)" fill-rule="evenodd"/></svg>

<!-- Generator: Adobe Illustrator 23.0.2, SVG Export Plug-In . SVG Version: 6.00 Build 0)  -->
<svg xmlns="http://www.w3.org/2000/svg" xmlns:xlink="http://www.w3.org/1999/xlink" width="250px" height="250px" viewBox="0 0 250 250" version="1.1">
<defs>
<linearGradient id="linear0" gradientUnits="userSpaceOnUse" x1="222.184402" y1="363.4888" x2="20.240299" y2="92.922897" gradientTransform="matrix(0.256148,0,0,0.645995,0,0)">
<stop offset="0.000000376579" style="stop-color:rgb(43.529412%,64.313728%,94.901961%);stop-opacity:1;"/>
<stop offset="0.5051" style="stop-color:rgb(5.882353%,41.960785%,92.156863%);stop-opacity:1;"/>
<stop offset="1" style="stop-color:rgb(4.313726%,31.37255%,69.01961%);stop-opacity:1;"/>
</linearGradient>
<linearGradient id="linear1" gradientUnits="userSpaceOnUse" x1="298.516205" y1="306.51651" x2="96.572098" y2="35.950699" gradientTransform="matrix(0.256148,0,0,0.645995,0,0)">
<stop offset="0.000000376579" style="stop-color:rgb(43.529412%,64.313728%,94.901961%);stop-opacity:1;"/>
<stop offset="0.5051" style="stop-color:rgb(5.882353%,41.960785%,92.156863%);stop-opacity:1;"/>
<stop offset="1" style="stop-color:rgb(4.313726%,31.37255%,69.01961%);stop-opacity:1;"/>
</linearGradient>
</defs>
<g id="surface1">
<path style=" stroke:none;fill-rule:nonzero;fill:rgb(100%,100%,100%);fill-opacity:1;" d="M 121.625 57.882812 L 131.855469 57.882812 L 131.855469 202.824219 L 121.625 202.824219 Z M 121.625 57.882812 "/>
<path style=" stroke:none;fill-rule:nonzero;fill:rgb(100%,100%,100%);fill-opacity:1;" d="M 202.355469 57.882812 L 202.355469 197.242188 L 192.125 212.144531 L 192.125 57.882812 Z M 202.355469 57.882812 "/>
<path style=" stroke:none;fill-rule:nonzero;fill:rgb(100%,100%,100%);fill-opacity:1;" d="M 174.632812 47.601562 L 174.632812 109.261719 C 171.46875 98.984375 166.902344 89.761719 159.660156 89.761719 C 149.183594 89.761719 139.285156 110.53125 139.285156 147.222656 L 139.285156 147.648438 C 139.285156 184.339844 149.34375 205.109375 159.660156 205.109375 C 166.816406 205.109375 171.394531 195.886719 174.632812 184.339844 L 174.632812 202.824219 L 184.863281 202.824219 L 184.863281 32.699219 Z M 174.796875 147.648438 C 174.796875 149.675781 174.738281 151.652344 174.632812 153.558594 C 173.632812 171.441406 168.160156 183.101562 162.070312 183.101562 C 155.253906 183.101562 149.429688 169.03125 149.429688 147.648438 L 149.429688 147.222656 C 149.429688 125.195312 155.167969 111.769531 162.070312 111.769531 C 168.160156 111.769531 173.640625 123.261719 174.632812 141.265625 C 174.738281 143.171875 174.796875 145.175781 174.796875 147.230469 Z M 174.796875 147.648438 "/>
<path style=" stroke:none;fill-rule:nonzero;fill:rgb(100%,100%,100%);fill-opacity:1;" d="M 207.574219 147.855469 L 207.574219 147.433594 C 207.574219 115.761719 216.472656 89.753906 229.03125 89.753906 C 243.003906 89.753906 250.078125 117.441406 250.078125 149.328125 C 250.078125 151.632812 249.992188 153.941406 249.910156 156.460938 L 217.636719 156.460938 C 218.71875 174.496094 223.792969 184.566406 230.277344 184.566406 C 235.1875 184.566406 238.679688 179.953125 242.171875 171.351562 L 248.078125 184.566406 C 243.917969 197.152344 238.179688 205.335938 230.113281 205.335938 C 217.390625 205.328125 207.574219 182.042969 207.574219 147.855469 Z M 240.09375 139.671875 C 239.429688 123.308594 235.605469 110.515625 228.949219 110.515625 C 222.792969 110.515625 218.46875 122.472656 217.554688 139.671875 Z M 240.09375 139.671875 "/>
<path style=" stroke:none;fill-rule:evenodd;fill:url(#linear0);" d="M 34.246094 0.644531 L 34.246094 200.402344 L 0.214844 200.402344 L 0 200.089844 L 0 50.511719 L 1.304688 48.605469 Z M 34.246094 0.644531 "/>
<path style=" stroke:none;fill-rule:evenodd;fill:url(#linear1);" d="M 45.214844 250 L 45.214844 50.246094 L 79.246094 50.246094 L 79.460938 50.554688 L 79.460938 200.136719 L 78.15625 202.042969 Z M 45.214844 250 "/>
</g>
</svg>
